packages/ffe-icons/icons/open/300/sm/king_bed.svg

<svg xmlns="http://www.w3.org/2000/svg" height="20" viewBox="0 -960 960 960" width="20"><path d="M116.001-515.307q0-26.999 18.843-45.845 18.842-18.847 45.465-18.847h7.692v-80.691q0-27.86 19.724-47.584 19.723-19.723 47.584-19.723h449.382q27.861 0 47.584 19.723 19.724 19.724 19.724 47.584v80.691h7.692q26.923 0 45.615 18.843 18.693 18.842 18.693 45.465v121.69q0 15.829-11.086 26.914-11.085 11.086-26.914 11.086l-28.769 91.307q-1.615 1.846-2.961 3.27-1.346 1.423-4.192 1.423h-4.154q-2.846 0-4.192-1.423-1.346-1.424-2.961-3.27l-28.769-91.307H229.999l-28.769 91.307q-1.615 1.846-2.961 3.27-1.346 1.423-4.192 1.423h-4.154q-2.846 0-4.192-1.423-1.346-1.424-2.961-3.27l-28.769-91.307q-15.829 0-26.914-11.086-11.086-11.085-11.086-26.914v-121.306Zm389.998-64.692H720v-83.691q0-5.385-3.462-8.847-3.462-3.462-8.847-3.462H505.999v96Zm-265.999 0h214.001v-96H252.309q-5.385 0-8.847 3.462Q240-669.075 240-663.69v83.691ZM168-408h624v-107.691q0-5.385-3.462-8.847-3.462-3.462-8.847-3.462H180.309q-5.385 0-8.847 3.462-3.462 3.462-3.462 8.847V-408Zm624 0H168 792Z"/></svg>

<svg xmlns="http://www.w3.org/2000/svg" height="20" viewBox="0 -960 960 960" width="20"><path d="M116-515.31q0-27 18.84-45.84Q153.69-580 180.31-580H188v-80.69q0-27.86 19.72-47.58Q227.45-728 255.31-728h449.38q27.86 0 47.59 19.73Q772-688.55 772-660.69V-580h7.69q26.92 0 45.62 18.84Q844-542.31 844-515.69V-394q0 15.83-11.09 26.91Q821.83-356 806-356l-28.77 91.31q-1.62 1.84-2.96 3.27-1.35 1.42-4.19 1.42h-4.16q-2.84 0-4.19-1.42-1.34-1.43-2.96-3.27L730-356H230l-28.77 91.31q-1.62 1.84-2.96 3.27-1.35 1.42-4.19 1.42h-4.16q-2.84 0-4.19-1.42-1.34-1.43-2.96-3.27L154-356q-15.83 0-26.91-11.09Q116-378.17 116-394v-121.31ZM506-580h214v-83.69q0-5.38-3.46-8.85-3.46-3.46-8.85-3.46H506v96Zm-266 0h214v-96H252.31q-5.39 0-8.85 3.46-3.46 3.47-3.46 8.85V-580Zm-72 172h624v-107.69q0-5.39-3.46-8.85t-8.85-3.46H180.31q-5.39 0-8.85 3.46t-3.46 8.85V-408Zm624 0H168h624Z"/></svg>
